idea/new-frontend/src/shared/assets/images/gear/idea.svg

<svg width="58" height="17" viewBox="0 0 58 17" fill="none" xmlns="http://www.w3.org/2000/svg">
<path d="M5.09516 7.34509H0V16.7081H5.09516V7.34509Z" fill="#2BD071" data-letter="I"/>
<path d="M36.6056 0.407227H20.2754V3.29528H36.6056V0.407227Z" fill="#2BD071" data-letter="E"/>
<path d="M36.6056 7.11511H20.2754V10.0032H36.6056V7.11511Z" fill="#2BD071" data-letter="E"/>
<path d="M36.6056 13.8201H20.2754V16.7081H36.6056V13.8201Z" fill="#2BD071" data-letter="E"/>
<path d="M9.36035 0.407227C13.8718 0.407227 17.53 4.05686 17.53 8.55768C17.53 13.0585 13.8718 16.7081 9.36035 16.7081V0.407227Z" fill="#2BD071" data-letter="D"/>
<path d="M2.54758 5.49044C3.95457 5.49044 5.09516 4.35252 5.09516 2.94883C5.09516 1.54514 3.95457 0.407227 2.54758 0.407227C1.14059 0.407227 0 1.54514 0 2.94883C0 4.35252 1.14059 5.49044 2.54758 5.49044Z" fill="#2BD071" data-letter="I"/>
<path d="M47.9642 0.407227L38.5312 16.7081H57.3971L47.9642 0.407227Z" fill="#2BD071" data-letter="A" />
</svg>

<svg width="58" height="17" fill="none" xmlns="http://www.w3.org/2000/svg"><path d="M5.095 7.345H0v9.363h5.095V7.345ZM36.606.407h-16.33v2.888h16.33V.407ZM36.606 7.115h-16.33v2.888h16.33V7.115ZM36.606 13.82h-16.33v2.888h16.33V13.82ZM9.36.407c4.512 0 8.17 3.65 8.17 8.15 0 4.502-3.658 8.151-8.17 8.151V.408ZM2.548 5.49A2.545 2.545 0 0 0 5.095 2.95 2.545 2.545 0 0 0 2.548.407 2.545 2.545 0 0 0 0 2.95 2.545 2.545 0 0 0 2.548 5.49ZM47.964.407l-9.433 16.301h18.866L47.964.408Z" fill="#2BD071"/></svg>
